lg/hibernate.svg

<svg viewBox="0 0 256 267" version="1.1" xmlns="http://www.w3.org/2000/svg" preserveAspectRatio="xMidYMid" height="1em" width="1em">
  <g>
    <path d="M153.6714,178.9332 L152.7394,181.6902 L201.8764,265.0322 L204.6574,267.0002 L255.9994,178.2202 L204.6574,89.0832 L153.6714,178.9332 Z" fill="#59666C"/>
    <path d="M50.2731,0.3039 L0.0001,89.0839 L52.2341,178.9329 L101.9721,89.0839 L101.8381,85.4529 L52.5651,2.1099 L50.2731,0.3039 Z" fill="#59666C"/>
    <path d="M50.2731,0.3039 L101.9721,89.0839 L204.6571,89.0839 L152.6011,0.3039 L50.2731,0.3039 Z" fill="#BCAE79"/>
    <path d="M52.2342,178.9332 L102.8642,267.0002 L204.6572,267.0002 L153.6712,178.9332 L52.2342,178.9332 Z" fill="#BCAE79"/>
  </g>
</svg>

<svg viewBox="0 0 256 267" xmlns="http://www.w3.org/2000/svg" preserveAspectRatio="xMidYMid" height="1em" width="1em">
  <path d="m153.671 178.933-.932 2.757 49.137 83.342 2.781 1.968L256 178.22l-51.342-89.137-50.986 89.85ZM50.273.304 0 89.084l52.234 89.849 49.738-89.85-.134-3.63L52.565 2.11 50.273.304Z" fill="#59666C"/>
  <path d="m50.273.304 51.7 88.78h102.684L152.601.304H50.273Zm1.961 178.629L102.864 267h101.793l-50.986-88.067H52.234Z" fill="#BCAE79"/>
</svg>
